svgs/thin/battery-quarter.svg

<svg xmlns="http://www.w3.org/2000/svg" viewBox="0 0 576 512"><!--! Font Awesome Pro 6.6.0 by @fontawesome - https://fontawesome.com License - https://fontawesome.com/license (Commercial License) Copyright 2024 Fonticons, Inc. --><path d="M448 112c35.3 0 64 28.7 64 64l0 16 0 16 0 96 0 16 0 16c0 35.3-28.7 64-64 64L80 400c-35.3 0-64-28.7-64-64l0-160c0-35.3 28.7-64 64-64l368 0zm80 224l0-16 16 0c17.7 0 32-14.3 32-32l0-64c0-17.7-14.3-32-32-32l-16 0 0-16c0-44.2-35.8-80-80-80L80 96C35.8 96 0 131.8 0 176L0 336c0 44.2 35.8 80 80 80l368 0c44.2 0 80-35.8 80-80zm0-32l0-96 16 0c8.8 0 16 7.2 16 16l0 64c0 8.8-7.2 16-16 16l-16 0zM112 176l32 0c17.7 0 32 14.3 32 32l0 96c0 17.7-14.3 32-32 32l-32 0c-17.7 0-32-14.3-32-32l0-96c0-17.7 14.3-32 32-32zM64 208l0 96c0 26.5 21.5 48 48 48l32 0c26.5 0 48-21.5 48-48l0-96c0-26.5-21.5-48-48-48l-32 0c-26.5 0-48 21.5-48 48z"/></svg>

<svg xmlns="http://www.w3.org/2000/svg" viewBox="0 0 576 512"><!--! Font Awesome Pro 6.4.2 by @fontawesome - https://fontawesome.com License - https://fontawesome.com/license (Commercial License) Copyright 2023 Fonticons, Inc. --><path d="M448 112c35.3 0 64 28.7 64 64v16 16 96 16 16c0 35.3-28.7 64-64 64H80c-35.3 0-64-28.7-64-64V176c0-35.3 28.7-64 64-64H448zm80 224V320h16c17.7 0 32-14.3 32-32V224c0-17.7-14.3-32-32-32H528V176c0-44.2-35.8-80-80-80H80C35.8 96 0 131.8 0 176V336c0 44.2 35.8 80 80 80H448c44.2 0 80-35.8 80-80zm0-32V208h16c8.8 0 16 7.2 16 16v64c0 8.8-7.2 16-16 16H528zM112 176h32c17.7 0 32 14.3 32 32v96c0 17.7-14.3 32-32 32H112c-17.7 0-32-14.3-32-32V208c0-17.7 14.3-32 32-32zM64 208v96c0 26.5 21.5 48 48 48h32c26.5 0 48-21.5 48-48V208c0-26.5-21.5-48-48-48H112c-26.5 0-48 21.5-48 48z"/></svg>
